flutter/assets/trash.svg

<svg xmlns="http://www.w3.org/2000/svg" width="32" height="32" style="isolation:isolate" viewBox="151.496 106.603 32 32"><path fill="none" d="M151.496 106.603h32v32h-32v-32Z"/><path fill-rule="evenodd" d="M162.872 114.091h-1.568a1.407 1.407 0 0 0 0 2.814h12.384a1.408 1.408 0 1 0 0-2.814h-1.568v-.307c0-.652-.529-1.181-1.181-1.181h-6.886c-.652 0-1.181.529-1.181 1.181v.307Zm-1.375 3.876h11.998c.284 0 .515.231.515.515v11.548a2.574 2.574 0 0 1-2.573 2.573h-7.881a2.575 2.575 0 0 1-2.574-2.573v-11.548c0-.284.231-.515.515-.515Z"/></svg>

<?xml version="1.0" encoding="UTF-8" standalone="no"?>
<svg xmlns="http://www.w3.org/2000/svg" xmlns:xlink="http://www.w3.org/1999/xlink" style="isolation:isolate" viewBox="151.496 106.603 32 32" width="32" height="32"><g><path d=" M 151.496 106.603 L 183.496 106.603 L 183.496 138.603 L 151.496 138.603 L 151.496 106.603 Z " fill="none"/><path d=" M 162.872 114.091 L 161.304 114.091 C 160.527 114.091 159.897 114.721 159.897 115.498 L 159.897 115.498 C 159.897 116.275 160.527 116.905 161.304 116.905 L 173.688 116.905 C 174.465 116.905 175.096 116.275 175.096 115.498 L 175.096 115.498 C 175.096 114.721 174.465 114.091 173.688 114.091 L 172.12 114.091 L 172.12 113.784 C 172.12 113.132 171.591 112.603 170.939 112.603 L 164.053 112.603 C 163.401 112.603 162.872 113.132 162.872 113.784 L 162.872 114.091 Z  M 161.497 117.967 L 173.495 117.967 C 173.779 117.967 174.01 118.198 174.01 118.482 L 174.01 130.03 C 174.01 131.45 172.857 132.603 171.437 132.603 L 163.556 132.603 C 162.135 132.603 160.982 131.45 160.982 130.03 L 160.982 118.482 C 160.982 118.198 161.213 117.967 161.497 117.967 Z " fill-rule="evenodd" fill="rgb(0,0,0)"/></g></svg>
